assets/symbols/mulberry/dresser.svg

<svg height="850.394" viewBox="0 0 850.394 850.394" width="850.394" xmlns="http://www.w3.org/2000/svg"><g fill="#9c5c25"><path d="m745.6 180v208.55l-.25 4.07-534.12-32.74v-187.88h2.77l528 8z"/><path d="m745.6 78.83v101.17h-3.6l-528-8h-2.77v-87.04zm-534.37 281.05 534.12 32.74 1.79.11v4.89l-82.56 24.54-5.58 1.66-556.86-39-10.59-.74 118.13-24.29z"/><path d="m747.14 397.62v311.58l-60.77 29.56-.37-.76-20.93 1.05v-315.23l-.49-1.66z"/><path d="m665.07 739.05v4.92l-562.93-77.83v-108.32l259.87 31.4 303.06 36.63z"/><path d="m665.07 518.76v107.09l-303.06-36.63v-100.77z"/><path d="m362.01 488.45-259.87-25.99v-77.64l556.86 39 5.58-1.66.49 1.66v94.94zm258.35 253.85v32.04h-26.19v-38.66z"/><path d="m362.01 488.45v100.77l-259.87-31.4v-95.36zm-184.9 195.34v32.03h-26.19v-38.65z"/></g><g fill="none"><g stroke="#231f20"><g stroke-width="21"><path d="m211.23 364.89v-279.93l534.37-6.13v309.72"/><path d="m747.87 397.4-.73.22-82.56 24.54-5.58 1.66-556.86-39-10.59-.74 118.13-24.29 1.55.09 534.12 32.74 1.79.11v316.47l-60.77 29.56-16.02 7.8"/><path d="m102.14 384.82v281.32l562.93 77.83v-320.15"/><path d="m102.14 462.46 259.87 25.99 303.06 30.31m-562.93 39.06 259.87 31.4 303.06 36.63"/><path d="m362.02 409.47-.01 78.98v100.77l-.01 106.78m-184.89 19.82h-26.19v-38.65l26.19 6.62zm443.25 58.52h-26.19v-38.66l26.19 6.62z"/><path d="m210.91 423.96 37.8 4.29m-37.8 88.04 37.8 4.3m-37.8 94.53 37.8 4.29m232.69-173.49 37.8 4.3m-37.8 88.04 37.8 4.29m-37.8 101.16 37.8 4.29" stroke-linecap="round" stroke-linejoin="round"/></g><path d="m214 172 528 8m-530 82 526 20" stroke-width="14"/></g><path d="m0 0h850.394v850.394h-850.394z"/></g></svg>

<svg xmlns="http://www.w3.org/2000/svg" width="850.394" height="850.394" viewBox="0 0 850.394 850.394" overflow="visible"><g fill="#9c5c25"><path d="M745.6 180v208.55l-.25 4.07-534.12-32.74V172H214l528 8z"/><path d="M745.6 78.83V180H742l-528-8h-2.77V84.96zM211.23 359.88l534.12 32.74 1.79.11v4.89l-82.56 24.54-5.58 1.66-556.86-39-10.59-.74 118.13-24.29z"/><path d="M747.14 397.62V709.2l-60.77 29.56-.37-.76-20.93 1.05V423.82l-.49-1.66z"/><path d="M665.07 739.05v4.92l-562.93-77.83V557.82l259.87 31.4 303.06 36.63z"/><path d="M665.07 518.76v107.09l-303.06-36.63V488.45z"/><path d="M362.01 488.45l-259.87-25.99v-77.64l556.86 39 5.58-1.66.49 1.66v94.94zM620.36 742.3v32.04h-26.19v-38.66z"/><path d="M362.01 488.45v100.77l-259.87-31.4v-95.36zM177.11 683.79v32.03h-26.19v-38.65z"/></g><g fill="none" stroke="#231f20"><path stroke-width="21" d="M211.23 364.89V84.96l534.37-6.13v309.72"/><path stroke-width="21" d="M747.87 397.4l-.73.22-82.56 24.54-5.58 1.66-556.86-39-10.59-.74 118.13-24.29 1.55.09 534.12 32.74 1.79.11V709.2l-60.77 29.56-16.02 7.8"/><path stroke-width="21" d="M102.14 384.82v281.32l562.93 77.83V423.82"/><path stroke-width="21" d="M102.14 462.46l259.87 25.99 303.06 30.31M102.14 557.82l259.87 31.4 303.06 36.63"/><path stroke-width="21" d="M362.02 409.47l-.01 78.98v100.77L362 696M177.11 715.82h-26.19v-38.65l26.19 6.62zM620.36 774.34h-26.19v-38.66l26.19 6.62z"/><path stroke-width="21" stroke-linecap="round" stroke-linejoin="round" d="M210.91 423.96l37.8 4.29M210.91 516.29l37.8 4.3M210.91 615.12l37.8 4.29M481.4 445.92l37.8 4.3M481.4 538.26l37.8 4.29M481.4 643.71l37.8 4.29"/><path stroke-width="14" d="M214 172l528 8M212 262l526 20"/></g><path fill="none" d="M0 0h850.394v850.394H0z"/></svg>
